X:029
T:Connolly's Reel (reel) 
T:Whistling Postman
B:CRE3.146 (RÃÂÃÂÃÂÃÂ­l UÃÂÃÂÃÂÃÂ­ Chonghaile)
F:file ID: cre.3/029conn_R
N:From Seamus: "I first heard Paddy Reynolds playing this on a tape 
in the earrly 1970s or late 1969 I believe. It may be a Sean Ryan tune." 
Possibly, but it's not included in Sean Ryan's tunebook.
(email 24 Jan 2013)
R:reel
L:1/8
Q:180
M:C
K:D
ze|fdd2 edef|dBAF E3F|DE (3FED AFAB|defd g2ag|
fdd2 edef|dBAF E3F|DE (3FED FAdf|edBc d2:|
Ac|d2dc dfaf|bfaf gfec|dfaf gfgb|afdf e2de|
fddc dfaf|bfaf gfec|dBAF ABdf|edBc d2:|

%%%

